assets/man/mono.svg

<svg viewBox="0 0 24 24" xmlns="http://www.w3.org/2000/svg"><path d="m10.979 14.943h2.05l2.431 3.757h-2.054l-.263-.409h-2.278l-.264.41h-2.053zm1.025 1.568-.458.711h.916l-.458-.712zm-12.004.861c0-6.668 5.372-12.072 12-12.072s12 5.405 12 12.073c0 .449-.024.892-.072 1.328h-1.348c.054-.435.082-.878.082-1.328 0-5.924-4.774-10.726-10.662-10.726-5.889 0-10.661 4.802-10.661 10.726 0 .45.027.893.08 1.328h-1.346a12.254 12.274 0 0 1 -.073-1.329zm2.237-2.43h1.83l1.22 1.228 1.22-1.227h1.831v3.757h-1.975v-1.38l-1.075 1.082-1.076-1.082v1.38h-1.975v-3.757zm13.42 0h1.927l2.17 1.62v-1.62h1.975v3.758h-1.942l-2.156-1.605v1.605h-1.975z"/></svg>

<svg xmlns="http://www.w3.org/2000/svg" viewBox="0 0 24 24"><path d="M10.979 14.943h2.05L15.46 18.7h-2.054l-.263-.409h-2.278l-.264.41H8.548zm1.025 1.568-.458.711h.916l-.458-.712zM0 17.372C0 10.704 5.372 5.3 12 5.3s12 5.405 12 12.073q0 .674-.072 1.328H22.58q.081-.653.082-1.328c0-5.924-4.774-10.726-10.662-10.726S1.339 11.449 1.339 17.373q0 .675.08 1.328H.073A12.254 12.274 0 0 1 0 17.372m2.237-2.43h1.83l1.22 1.228 1.22-1.227h1.831V18.7H6.363v-1.38l-1.075 1.082-1.076-1.082v1.38H2.237v-3.757zm13.42 0h1.927l2.17 1.62v-1.62h1.975V18.7h-1.942l-2.156-1.605V18.7h-1.975z"/></svg>
